Newaita-dark/actions/24/format-text-uppercase.svg

<svg xmlns="http://www.w3.org/2000/svg" xmlns:xlink="http://www.w3.org/1999/xlink" width="24px" height="24px" viewBox="0 0 24 24" version="1.1">
<g id="surface1">
     <defs>
  <style id="current-color-scheme" type="text/css">
   .ColorScheme-Text { color:#eeeeee; } .ColorScheme-Highlight { color:#424242; }
  </style>
 </defs>
<path style="fill:currentColor" class="ColorScheme-Text" d="M 6.945312 9.117188 C 4.746094 9.117188 2.976562 10.445312 2.976562 12.09375 L 2.976562 21.027344 L 4.960938 21.027344 L 4.960938 17.054688 L 8.929688 17.054688 L 8.929688 21.027344 L 10.914062 21.027344 L 10.914062 12.09375 C 10.914062 10.445312 9.144531 9.117188 6.945312 9.117188 Z M 6.945312 11.101562 C 8.046875 11.101562 8.929688 11.546875 8.929688 12.09375 L 8.929688 15.070312 L 4.960938 15.070312 L 4.960938 12.09375 C 4.960938 11.546875 5.847656 11.101562 6.945312 11.101562 Z M 6.945312 11.101562 "/>
     <defs>
  <style id="current-color-scheme" type="text/css">
   .ColorScheme-Text { color:#eeeeee; } .ColorScheme-Highlight { color:#424242; }
  </style>
 </defs>
<path style="fill:currentColor" class="ColorScheme-Text" d="M 13.394531 8.125 L 20.339844 8.125 L 16.867188 3.164062 Z M 13.394531 8.125 "/>
     <defs>
  <style id="current-color-scheme" type="text/css">
   .ColorScheme-Text { color:#eeeeee; } .ColorScheme-Highlight { color:#424242; }
  </style>
 </defs>
<path style="fill:currentColor" class="ColorScheme-Text" d="M 12.898438 9.117188 L 12.898438 21.027344 L 16.371094 21.027344 C 18.847656 21.027344 20.839844 19.367188 20.839844 17.304688 L 20.839844 16.808594 C 20.839844 15.519531 20.058594 14.386719 18.871094 13.71875 C 19.171875 13.253906 19.347656 12.695312 19.347656 12.09375 C 19.347656 10.445312 18.023438 9.117188 16.371094 9.117188 Z M 14.882812 11.101562 L 16.371094 11.101562 C 16.921875 11.101562 17.363281 11.546875 17.363281 12.09375 C 17.363281 12.644531 16.921875 13.085938 16.371094 13.085938 L 14.882812 13.085938 Z M 14.882812 15.070312 L 16.371094 15.070312 C 17.746094 15.070312 18.851562 15.957031 18.851562 17.054688 C 18.851562 18.15625 17.746094 19.039062 16.371094 19.039062 L 14.882812 19.039062 Z M 14.882812 15.070312 "/>
</g>
</svg>

<svg xmlns="http://www.w3.org/2000/svg" width="32" height="32" viewBox="0 0 24 24"><path d="M6.945 9.117c-2.199 0-3.968 1.328-3.968 2.977v8.933H4.96v-3.972H8.93v3.972h1.984v-8.933c0-1.649-1.77-2.977-3.969-2.977zm0 1.985c1.102 0 1.985.445 1.985.992v2.976H4.96v-2.976c0-.547.888-.992 1.985-.992zm0 0M12.898 9.117v11.91h3.473c2.477 0 4.469-1.66 4.469-3.722v-.496c0-1.29-.781-2.422-1.969-3.09.3-.465.477-1.024.477-1.625a2.968 2.968 0 0 0-2.977-2.977zm1.985 1.985h1.488c.55 0 .992.445.992.992 0 .55-.441.992-.992.992h-1.488zm0 3.968h1.488c1.375 0 2.48.887 2.48 1.985 0 1.101-1.105 1.984-2.48 1.984h-1.488zm0 0" fill="#bdbdbd"/><path d="M12.941 7.227a.7.7 0 0 0 .704.73h5.953a.704.704 0 1 0 .605-1.063l-2.976-4.96a.701.701 0 0 0-1.207 0l-2.977 4.96a.717.717 0 0 0-.102.333zm1.946-.676l1.734-2.89 1.734 2.89zm0 0" fill="#26a69a"/></svg>
